X: 100272
T: THOMPSON'S HORNPIPE
R: hornpipe, reel
B: K\"ohler's Violin Repository, v.3, 1885 p.203 #2
F: http://www.archive.org/details/klersviolinrepos03rugg
Z: 2012 John Chambers <jc:trillian.mit.edu>
M: C|
L: 1/8
K: Gm
(ucA) !segno!|\
BGFD ECC2 | (DG)G^F GABc | dBcA BGAF | DAG^F G2(cA) |
BGFD ECC2 | (DG)G^F GABc | defd cAGF | DGG^F G2 :|
|: uA2 |\
B2(df) bdfd | B2(df) gdfd | B2(df) bdfd | c=Bcd _BGG2 |
B2df bdbd | fdfd gdgd | bdbd fdfd | c=Bcd _BGGA !segno!"_D.C."|]

%%sep 2 1 500

